X:456
T: "Alter Schlachtgesang"
N: Z1136
O: Europa, Mitteleuropa, Deutschland, Koeln
R: Vaterland und Wehr
M: 6/8
L: 1/8
K: A
EFG | A2AAGF | E2E
EFG | A2EB2E | c2z
c2c | c2BA2G | A2F
B2B | B2AG2F | E2z
E2E | G2GGFG | A2E
E2E | B2BBAB | c2z
A2A | d2dd2d | f2f
f2f | e2cd2B | A2z

@@@ Tune index: 10214
